X: 44
T:The Welsh March
M:2/4
L:1/8
Q:220
C:Handel
S:Blodau'r Grug Collection Vol. 3
R:March
A:Wales
Z:brian_martin12345@yahoo.com
K:D
dd/d/ dd|d2A2|dA Fd|AF Dd/e/|ff/f/ ff|f2e2|f/g/a/b/ ^g>a|a4:||
ee/e/ ee|e2a2|fd fa|fd Af/g/|aa/a/ aa|a2g2|f/g/a/b/e>d|d4:||

